dist/images/logo.svg

<svg width="197" height="31" viewBox="0 0 197 31" fill="none" xmlns="http://www.w3.org/2000/svg">
<path d="M9.593 24.33C7.547 24.33 5.831 24.033 4.445 23.439C3.081 22.823 2.036 22.031 1.31 21.063C0.606 20.073 0.232 19.039 0.188 17.961C0.188 17.763 0.254 17.598 0.386 17.466C0.518 17.334 0.683 17.268 0.881 17.268H3.818C4.104 17.268 4.313 17.334 4.445 17.466C4.599 17.576 4.731 17.719 4.841 17.895C4.973 18.313 5.226 18.731 5.6 19.149C5.974 19.545 6.48 19.875 7.118 20.139C7.778 20.403 8.603 20.535 9.593 20.535C11.177 20.535 12.354 20.271 13.124 19.743C13.916 19.215 14.312 18.5 14.312 17.598C14.312 16.96 14.103 16.454 13.685 16.08C13.267 15.684 12.618 15.332 11.738 15.024C10.88 14.694 9.736 14.353 8.306 14.001C6.656 13.605 5.27 13.132 4.148 12.582C3.048 12.01 2.212 11.295 1.64 10.437C1.09 9.579 0.815 8.49 0.815 7.17C0.815 5.894 1.156 4.761 1.838 3.771C2.542 2.781 3.532 2 4.808 1.428C6.106 0.855999 7.646 0.569999 9.428 0.569999C10.858 0.569999 12.123 0.767999 13.223 1.164C14.323 1.538 15.236 2.044 15.962 2.682C16.688 3.298 17.238 3.969 17.612 4.695C18.008 5.399 18.217 6.092 18.239 6.774C18.239 6.95 18.173 7.115 18.041 7.269C17.931 7.401 17.766 7.467 17.546 7.467H14.477C14.301 7.467 14.125 7.423 13.949 7.335C13.773 7.247 13.63 7.082 13.52 6.84C13.388 6.158 12.959 5.575 12.233 5.091C11.507 4.607 10.572 4.365 9.428 4.365C8.24 4.365 7.283 4.585 6.557 5.025C5.831 5.465 5.468 6.147 5.468 7.071C5.468 7.687 5.644 8.204 5.996 8.622C6.37 9.018 6.953 9.37 7.745 9.678C8.559 9.986 9.626 10.316 10.946 10.668C12.816 11.086 14.345 11.57 15.533 12.12C16.721 12.67 17.59 13.374 18.14 14.232C18.69 15.068 18.965 16.135 18.965 17.433C18.965 18.885 18.569 20.128 17.777 21.162C17.007 22.174 15.918 22.955 14.51 23.505C13.102 24.055 11.463 24.33 9.593 24.33ZM24.5619 24C24.3419 24 24.1549 23.923 24.0009 23.769C23.8469 23.615 23.7699 23.428 23.7699 23.208V7.632C23.7699 7.412 23.8469 7.225 24.0009 7.071C24.1549 6.917 24.3419 6.84 24.5619 6.84H27.3009C27.5429 6.84 27.7299 6.917 27.8619 7.071C28.0159 7.225 28.0929 7.412 28.0929 7.632V23.208C28.0929 23.428 28.0159 23.615 27.8619 23.769C27.7299 23.923 27.5429 24 27.3009 24H24.5619ZM24.4299 4.002C24.1879 4.002 23.9899 3.936 23.8359 3.804C23.7039 3.65 23.6379 3.452 23.6379 3.21V0.833999C23.6379 0.613999 23.7039 0.426999 23.8359 0.272999C23.9899 0.118999 24.1879 0.0419996 24.4299 0.0419996H27.4329C27.6749 0.0419996 27.8729 0.118999 28.0269 0.272999C28.1809 0.426999 28.2579 0.613999 28.2579 0.833999V3.21C28.2579 3.452 28.1809 3.65 28.0269 3.804C27.8729 3.936 27.6749 4.002 27.4329 4.002H24.4299ZM35.3588 24C35.1388 24 34.9518 23.923 34.7978 23.769C34.6438 23.615 34.5668 23.428 34.5668 23.208V7.632C34.5668 7.412 34.6438 7.225 34.7978 7.071C34.9518 6.917 35.1388 6.84 35.3588 6.84H37.9328C38.1528 6.84 38.3398 6.917 38.4938 7.071C38.6478 7.225 38.7248 7.412 38.7248 7.632V8.754C39.1868 8.138 39.8028 7.621 40.5728 7.203C41.3648 6.763 42.2998 6.532 43.3778 6.51C45.8858 6.466 47.6348 7.445 48.6248 9.447C49.1308 8.567 49.8568 7.863 50.8028 7.335C51.7708 6.785 52.8378 6.51 54.0038 6.51C55.1478 6.51 56.1818 6.774 57.1058 7.302C58.0518 7.83 58.7888 8.633 59.3168 9.711C59.8668 10.767 60.1418 12.109 60.1418 13.737V23.208C60.1418 23.428 60.0648 23.615 59.9108 23.769C59.7568 23.923 59.5698 24 59.3498 24H56.6438C56.4238 24 56.2368 23.923 56.0828 23.769C55.9288 23.615 55.8518 23.428 55.8518 23.208V14.001C55.8518 13.011 55.7088 12.23 55.4228 11.658C55.1368 11.064 54.7518 10.646 54.2678 10.404C53.7838 10.162 53.2448 10.041 52.6508 10.041C52.1668 10.041 51.6828 10.162 51.1988 10.404C50.7148 10.646 50.3188 11.064 50.0108 11.658C49.7028 12.23 49.5488 13.011 49.5488 14.001V23.208C49.5488 23.428 49.4718 23.615 49.3178 23.769C49.1638 23.923 48.9768 24 48.7568 24H46.0508C45.8088 24 45.6108 23.923 45.4568 23.769C45.3248 23.615 45.2588 23.428 45.2588 23.208V14.001C45.2588 13.011 45.1048 12.23 44.7968 11.658C44.4888 11.064 44.0928 10.646 43.6088 10.404C43.1248 10.162 42.6078 10.041 42.0578 10.041C41.5518 10.041 41.0568 10.173 40.5728 10.437C40.0888 10.679 39.6928 11.086 39.3848 11.658C39.0768 12.23 38.9228 13.011 38.9228 14.001V23.208C38.9228 23.428 38.8458 23.615 38.6918 23.769C38.5378 23.923 38.3508 24 38.1308 24H35.3588ZM66.5881 30.27C66.3681 30.27 66.1811 30.193 66.0271 30.039C65.8731 29.885 65.7961 29.698 65.7961 29.478V7.632C65.7961 7.412 65.8731 7.225 66.0271 7.071C66.1811 6.917 66.3681 6.84 66.5881 6.84H69.1951C69.4371 6.84 69.6241 6.917 69.7561 7.071C69.9101 7.225 69.9871 7.412 69.9871 7.632V8.952C70.5151 8.248 71.2081 7.665 72.0661 7.203C72.9241 6.741 73.9911 6.51 75.2671 6.51C76.4331 6.51 77.4451 6.697 78.3031 7.071C79.1611 7.445 79.8761 7.984 80.4481 8.688C81.0201 9.37 81.4601 10.184 81.7681 11.13C82.0761 12.076 82.2521 13.121 82.2961 14.265C82.3181 14.639 82.3291 15.024 82.3291 15.42C82.3291 15.816 82.3181 16.212 82.2961 16.608C82.2741 17.708 82.1091 18.731 81.8011 19.677C81.4931 20.601 81.0421 21.415 80.4481 22.119C79.8761 22.801 79.1611 23.34 78.3031 23.736C77.4451 24.132 76.4331 24.33 75.2671 24.33C74.0791 24.33 73.0671 24.121 72.2311 23.703C71.3951 23.263 70.7131 22.691 70.1851 21.987V29.478C70.1851 29.698 70.1081 29.885 69.9541 30.039C69.8221 30.193 69.6351 30.27 69.3931 30.27H66.5881ZM74.0461 20.799C74.9921 20.799 75.7291 20.601 76.2571 20.205C76.7851 19.787 77.1591 19.248 77.3791 18.588C77.6211 17.928 77.7641 17.202 77.8081 16.41C77.8521 15.75 77.8521 15.09 77.8081 14.43C77.7641 13.638 77.6211 12.912 77.3791 12.252C77.1591 11.592 76.7851 11.064 76.2571 10.668C75.7291 10.25 74.9921 10.041 74.0461 10.041C73.1441 10.041 72.4071 10.25 71.8351 10.668C71.2851 11.086 70.8781 11.625 70.6141 12.285C70.3721 12.923 70.2291 13.583 70.1851 14.265C70.1631 14.661 70.1521 15.079 70.1521 15.519C70.1521 15.959 70.1631 16.388 70.1851 16.806C70.2071 17.466 70.3611 18.104 70.6471 18.72C70.9331 19.314 71.3511 19.809 71.9011 20.205C72.4511 20.601 73.1661 20.799 74.0461 20.799ZM88.2776 24C88.0576 24 87.8706 23.923 87.7166 23.769C87.5626 23.615 87.4856 23.428 87.4856 23.208V1.362C87.4856 1.142 87.5626 0.954999 87.7166 0.801C87.8706 0.646999 88.0576 0.569999 88.2776 0.569999H91.0166C91.2366 0.569999 91.4236 0.646999 91.5776 0.801C91.7316 0.954999 91.8086 1.142 91.8086 1.362V23.208C91.8086 23.428 91.7316 23.615 91.5776 23.769C91.4236 23.923 91.2366 24 91.0166 24H88.2776ZM104.997 24.33C102.555 24.33 100.619 23.626 99.189 22.218C97.759 20.81 96.989 18.808 96.879 16.212C96.857 15.992 96.846 15.717 96.846 15.387C96.846 15.035 96.857 14.76 96.879 14.562C96.967 12.912 97.341 11.482 98.001 10.272C98.683 9.062 99.618 8.138 100.806 7.5C101.994 6.84 103.391 6.51 104.997 6.51C106.779 6.51 108.275 6.884 109.485 7.632C110.695 8.358 111.608 9.381 112.224 10.701C112.84 11.999 113.148 13.506 113.148 15.222V15.915C113.148 16.135 113.071 16.322 112.917 16.476C112.763 16.63 112.565 16.707 112.323 16.707H101.367C101.367 16.707 101.367 16.74 101.367 16.806C101.367 16.872 101.367 16.927 101.367 16.971C101.389 17.741 101.532 18.456 101.796 19.116C102.082 19.754 102.489 20.271 103.017 20.667C103.567 21.063 104.216 21.261 104.964 21.261C105.58 21.261 106.097 21.173 106.515 20.997C106.933 20.799 107.274 20.579 107.538 20.337C107.802 20.095 107.989 19.897 108.099 19.743C108.297 19.479 108.451 19.325 108.561 19.281C108.693 19.215 108.88 19.182 109.122 19.182H111.96C112.18 19.182 112.356 19.248 112.488 19.38C112.642 19.512 112.708 19.677 112.686 19.875C112.664 20.227 112.477 20.656 112.125 21.162C111.795 21.668 111.311 22.163 110.673 22.647C110.035 23.131 109.232 23.538 108.264 23.868C107.318 24.176 106.229 24.33 104.997 24.33ZM101.367 13.935H108.66V13.836C108.66 12.978 108.517 12.23 108.231 11.592C107.945 10.954 107.527 10.448 106.977 10.074C106.427 9.7 105.767 9.513 104.997 9.513C104.227 9.513 103.567 9.7 103.017 10.074C102.467 10.448 102.049 10.954 101.763 11.592C101.499 12.23 101.367 12.978 101.367 13.836V13.935Z" fill="#FF6838"/>
<path d="M119.258 24C119.038 24 118.851 23.923 118.697 23.769C118.543 23.615 118.466 23.428 118.466 23.208V1.725C118.466 1.483 118.543 1.285 118.697 1.131C118.851 0.976999 119.038 0.899998 119.258 0.899998H133.58C133.822 0.899998 134.02 0.976999 134.174 1.131C134.328 1.285 134.405 1.483 134.405 1.725V4.035C134.405 4.277 134.328 4.475 134.174 4.629C134.02 4.761 133.822 4.827 133.58 4.827H122.987V11.097H132.92C133.162 11.097 133.36 11.174 133.514 11.328C133.668 11.482 133.745 11.68 133.745 11.922V14.232C133.745 14.452 133.668 14.639 133.514 14.793C133.36 14.947 133.162 15.024 132.92 15.024H122.987V23.208C122.987 23.428 122.91 23.615 122.756 23.769C122.602 23.923 122.404 24 122.162 24H119.258ZM146.576 24.33C144.816 24.33 143.331 24.022 142.121 23.406C140.933 22.79 140.02 21.921 139.382 20.799C138.766 19.677 138.414 18.368 138.326 16.872C138.304 16.476 138.293 15.992 138.293 15.42C138.293 14.848 138.304 14.364 138.326 13.968C138.414 12.45 138.777 11.141 139.415 10.041C140.075 8.919 140.999 8.05 142.187 7.434C143.397 6.818 144.86 6.51 146.576 6.51C148.292 6.51 149.744 6.818 150.932 7.434C152.142 8.05 153.066 8.919 153.704 10.041C154.364 11.141 154.738 12.45 154.826 13.968C154.848 14.364 154.859 14.848 154.859 15.42C154.859 15.992 154.848 16.476 154.826 16.872C154.738 18.368 154.375 19.677 153.737 20.799C153.121 21.921 152.208 22.79 150.998 23.406C149.81 24.022 148.336 24.33 146.576 24.33ZM146.576 21.063C147.742 21.063 148.644 20.7 149.282 19.974C149.92 19.226 150.272 18.137 150.338 16.707C150.36 16.377 150.371 15.948 150.371 15.42C150.371 14.892 150.36 14.463 150.338 14.133C150.272 12.725 149.92 11.647 149.282 10.899C148.644 10.151 147.742 9.777 146.576 9.777C145.41 9.777 144.508 10.151 143.87 10.899C143.232 11.647 142.88 12.725 142.814 14.133C142.792 14.463 142.781 14.892 142.781 15.42C142.781 15.948 142.792 16.377 142.814 16.707C142.88 18.137 143.232 19.226 143.87 19.974C144.508 20.7 145.41 21.063 146.576 21.063ZM167.524 24.33C165.764 24.33 164.279 24.022 163.069 23.406C161.881 22.79 160.968 21.921 160.33 20.799C159.714 19.677 159.362 18.368 159.274 16.872C159.252 16.476 159.241 15.992 159.241 15.42C159.241 14.848 159.252 14.364 159.274 13.968C159.362 12.45 159.725 11.141 160.363 10.041C161.023 8.919 161.947 8.05 163.135 7.434C164.345 6.818 165.808 6.51 167.524 6.51C169.24 6.51 170.692 6.818 171.88 7.434C173.09 8.05 174.014 8.919 174.652 10.041C175.312 11.141 175.686 12.45 175.774 13.968C175.796 14.364 175.807 14.848 175.807 15.42C175.807 15.992 175.796 16.476 175.774 16.872C175.686 18.368 175.323 19.677 174.685 20.799C174.069 21.921 173.156 22.79 171.946 23.406C170.758 24.022 169.284 24.33 167.524 24.33ZM167.524 21.063C168.69 21.063 169.592 20.7 170.23 19.974C170.868 19.226 171.22 18.137 171.286 16.707C171.308 16.377 171.319 15.948 171.319 15.42C171.319 14.892 171.308 14.463 171.286 14.133C171.22 12.725 170.868 11.647 170.23 10.899C169.592 10.151 168.69 9.777 167.524 9.777C166.358 9.777 165.456 10.151 164.818 10.899C164.18 11.647 163.828 12.725 163.762 14.133C163.74 14.463 163.729 14.892 163.729 15.42C163.729 15.948 163.74 16.377 163.762 16.707C163.828 18.137 164.18 19.226 164.818 19.974C165.456 20.7 166.358 21.063 167.524 21.063ZM187.252 24.33C186.108 24.33 185.096 24.143 184.216 23.769C183.358 23.373 182.643 22.823 182.071 22.119C181.499 21.415 181.059 20.59 180.751 19.644C180.443 18.676 180.267 17.62 180.223 16.476C180.201 16.08 180.19 15.728 180.19 15.42C180.19 15.09 180.201 14.727 180.223 14.331C180.267 13.231 180.432 12.208 180.718 11.262C181.026 10.316 181.466 9.491 182.038 8.787C182.632 8.061 183.358 7.5 184.216 7.104C185.096 6.708 186.108 6.51 187.252 6.51C188.44 6.51 189.441 6.719 190.255 7.137C191.091 7.533 191.784 8.05 192.334 8.688V1.362C192.334 1.142 192.4 0.954999 192.532 0.801C192.686 0.646999 192.884 0.569999 193.126 0.569999H195.931C196.151 0.569999 196.338 0.646999 196.492 0.801C196.646 0.954999 196.723 1.142 196.723 1.362V23.208C196.723 23.428 196.646 23.615 196.492 23.769C196.338 23.923 196.151 24 195.931 24H193.324C193.082 24 192.884 23.923 192.73 23.769C192.598 23.615 192.532 23.428 192.532 23.208V21.987C191.982 22.669 191.278 23.23 190.42 23.67C189.584 24.11 188.528 24.33 187.252 24.33ZM188.473 20.799C189.397 20.799 190.134 20.59 190.684 20.172C191.234 19.754 191.641 19.226 191.905 18.588C192.169 17.928 192.312 17.257 192.334 16.575C192.356 16.179 192.367 15.761 192.367 15.321C192.367 14.859 192.356 14.43 192.334 14.034C192.312 13.374 192.158 12.747 191.872 12.153C191.586 11.537 191.168 11.031 190.618 10.635C190.068 10.239 189.353 10.041 188.473 10.041C187.549 10.041 186.812 10.25 186.262 10.668C185.734 11.064 185.349 11.592 185.107 12.252C184.865 12.912 184.722 13.638 184.678 14.43C184.656 15.09 184.656 15.75 184.678 16.41C184.722 17.202 184.865 17.928 185.107 18.588C185.349 19.248 185.734 19.787 186.262 20.205C186.812 20.601 187.549 20.799 188.473 20.799Z" fill="#363853"/>
</svg>

<svg width="197" height="31" fill="none" xmlns="http://www.w3.org/2000/svg"><path d="M9.593 24.33c-2.046 0-3.762-.297-5.148-.891-1.364-.616-2.409-1.408-3.135-2.376-.704-.99-1.078-2.024-1.122-3.102 0-.198.066-.363.198-.495a.672.672 0 01.495-.198h2.937c.286 0 .495.066.627.198.154.11.286.253.396.429.132.418.385.836.759 1.254.374.396.88.726 1.518.99.66.264 1.485.396 2.475.396 1.584 0 2.761-.264 3.531-.792.792-.528 1.188-1.243 1.188-2.145 0-.638-.209-1.144-.627-1.518-.418-.396-1.067-.748-1.947-1.056-.858-.33-2.002-.671-3.432-1.023-1.65-.396-3.036-.869-4.158-1.419-1.1-.572-1.936-1.287-2.508-2.145C1.09 9.579.815 8.49.815 7.17c0-1.276.341-2.409 1.023-3.399.704-.99 1.694-1.771 2.97-2.343C6.106.856 7.646.57 9.428.57c1.43 0 2.695.198 3.795.594 1.1.374 2.013.88 2.739 1.518.726.616 1.276 1.287 1.65 2.013.396.704.605 1.397.627 2.079a.748.748 0 01-.198.495c-.11.132-.275.198-.495.198h-3.069c-.176 0-.352-.044-.528-.132-.176-.088-.319-.253-.429-.495-.132-.682-.561-1.265-1.287-1.749-.726-.484-1.661-.726-2.805-.726-1.188 0-2.145.22-2.871.66-.726.44-1.089 1.122-1.089 2.046 0 .616.176 1.133.528 1.551.374.396.957.748 1.749 1.056.814.308 1.881.638 3.201.99 1.87.418 3.399.902 4.587 1.452 1.188.55 2.057 1.254 2.607 2.112.55.836.825 1.903.825 3.201 0 1.452-.396 2.695-1.188 3.729-.77 1.012-1.859 1.793-3.267 2.343s-3.047.825-4.917.825zM24.562 24a.764.764 0 01-.561-.231.764.764 0 01-.231-.561V7.632c0-.22.077-.407.23-.561a.764.764 0 01.562-.231H27.3c.242 0 .429.077.56.231a.764.764 0 01.232.561v15.576c0 .22-.077.407-.231.561-.132.154-.32.231-.561.231h-2.74zM24.43 4.002a.88.88 0 01-.594-.198.88.88 0 01-.198-.594V.834c0-.22.066-.407.198-.561a.804.804 0 01.594-.231h3.003c.242 0 .44.077.594.231a.764.764 0 01.23.561V3.21c0 .242-.076.44-.23.594a.88.88 0 01-.594.198H24.43zM35.359 24a.764.764 0 01-.561-.231.764.764 0 01-.231-.561V7.632c0-.22.077-.407.23-.561a.764.764 0 01.562-.231h2.574a.76.76 0 01.56.231.764.764 0 01.232.561v1.122c.462-.616 1.078-1.133 1.848-1.551.792-.44 1.727-.671 2.805-.693 2.508-.044 4.257.935 5.247 2.937.506-.88 1.232-1.584 2.178-2.112.968-.55 2.035-.825 3.2-.825 1.145 0 2.179.264 3.103.792.946.528 1.683 1.331 2.21 2.409.55 1.056.826 2.398.826 4.026v9.471c0 .22-.077.407-.231.561a.764.764 0 01-.561.231h-2.706a.764.764 0 01-.561-.231.764.764 0 01-.231-.561v-9.207c0-.99-.143-1.771-.43-2.343-.285-.594-.67-1.012-1.154-1.254a3.565 3.565 0 00-1.617-.363c-.484 0-.968.121-1.452.363s-.88.66-1.188 1.254c-.308.572-.462 1.353-.462 2.343v9.207c0 .22-.077.407-.231.561a.764.764 0 01-.561.231H46.05a.804.804 0 01-.594-.231.833.833 0 01-.198-.561v-9.207c0-.99-.154-1.771-.462-2.343-.308-.594-.704-1.012-1.188-1.254a3.421 3.421 0 00-1.551-.363c-.506 0-1.001.132-1.485.396-.484.242-.88.649-1.188 1.221-.308.572-.462 1.353-.462 2.343v9.207c0 .22-.077.407-.231.561a.764.764 0 01-.561.231h-2.772zm31.23 6.27a.764.764 0 01-.562-.231.764.764 0 01-.23-.561V7.632c0-.22.076-.407.23-.561a.764.764 0 01.561-.231h2.607c.242 0 .43.077.561.231a.764.764 0 01.231.561v1.32c.528-.704 1.221-1.287 2.08-1.749.857-.462 1.924-.693 3.2-.693 1.166 0 2.178.187 3.036.561a5.602 5.602 0 012.145 1.617c.572.682 1.012 1.496 1.32 2.442.308.946.484 1.991.528 3.135a21.413 21.413 0 010 2.343 10.548 10.548 0 01-.495 3.069 7.347 7.347 0 01-1.353 2.442 6.079 6.079 0 01-2.145 1.617c-.858.396-1.87.594-3.036.594-1.188 0-2.2-.209-3.036-.627a6.012 6.012 0 01-2.046-1.716v7.491c0 .22-.077.407-.23.561-.133.154-.32.231-.562.231h-2.805zm7.457-9.471c.946 0 1.683-.198 2.211-.594a3.375 3.375 0 001.122-1.617c.242-.66.385-1.386.43-2.178.043-.66.043-1.32 0-1.98a7.508 7.508 0 00-.43-2.178 3.185 3.185 0 00-1.122-1.584c-.528-.418-1.265-.627-2.21-.627-.903 0-1.64.209-2.212.627-.55.418-.957.957-1.22 1.617a6.783 6.783 0 00-.43 1.98 24.494 24.494 0 000 2.541 4.89 4.89 0 00.462 1.914 3.884 3.884 0 001.254 1.485c.55.396 1.265.594 2.145.594zM88.278 24a.764.764 0 01-.561-.231.764.764 0 01-.231-.561V1.362c0-.22.077-.407.23-.561a.764.764 0 01.562-.231h2.739a.76.76 0 01.56.231.764.764 0 01.232.561v21.846c0 .22-.077.407-.231.561a.764.764 0 01-.561.231h-2.74zm16.719.33c-2.442 0-4.378-.704-5.808-2.112-1.43-1.408-2.2-3.41-2.31-6.006a8.535 8.535 0 01-.033-.825c0-.352.011-.627.033-.825.088-1.65.462-3.08 1.122-4.29.682-1.21 1.617-2.134 2.805-2.772 1.188-.66 2.585-.99 4.191-.99 1.782 0 3.278.374 4.488 1.122 1.21.726 2.123 1.749 2.739 3.069.616 1.298.924 2.805.924 4.521v.693c0 .22-.077.407-.231.561a.804.804 0 01-.594.231h-10.956v.264c.022.77.165 1.485.429 2.145a3.885 3.885 0 001.221 1.551c.55.396 1.199.594 1.947.594.616 0 1.133-.088 1.551-.264a4.107 4.107 0 001.023-.66c.264-.242.451-.44.561-.594.198-.264.352-.418.462-.462.132-.066.319-.099.561-.099h2.838c.22 0 .396.066.528.198a.54.54 0 01.198.495c-.022.352-.209.781-.561 1.287-.33.506-.814 1.001-1.452 1.485-.638.484-1.441.891-2.409 1.221-.946.308-2.035.462-3.267.462zm-3.63-10.395h7.293v-.099c0-.858-.143-1.606-.429-2.244a3.546 3.546 0 00-1.254-1.518c-.55-.374-1.21-.561-1.98-.561s-1.43.187-1.98.561c-.55.374-.968.88-1.254 1.518-.264.638-.396 1.386-.396 2.244v.099z" fill="#FF6838"/><path d="M119.258 24a.764.764 0 01-.561-.231.764.764 0 01-.231-.561V1.725c0-.242.077-.44.231-.594a.764.764 0 01.561-.231h14.322c.242 0 .44.077.594.231a.804.804 0 01.231.594v2.31c0 .242-.077.44-.231.594a.88.88 0 01-.594.198h-10.593v6.27h9.933c.242 0 .44.077.594.231a.804.804 0 01.231.594v2.31c0 .22-.077.407-.231.561a.804.804 0 01-.594.231h-9.933v8.184c0 .22-.077.407-.231.561a.804.804 0 01-.594.231h-2.904zm27.318.33c-1.76 0-3.245-.308-4.455-.924-1.188-.616-2.101-1.485-2.739-2.607-.616-1.122-.968-2.431-1.056-3.927-.022-.396-.033-.88-.033-1.452s.011-1.056.033-1.452c.088-1.518.451-2.827 1.089-3.927.66-1.122 1.584-1.991 2.772-2.607 1.21-.616 2.673-.924 4.389-.924 1.716 0 3.168.308 4.356.924 1.21.616 2.134 1.485 2.772 2.607.66 1.1 1.034 2.409 1.122 3.927.022.396.033.88.033 1.452s-.011 1.056-.033 1.452c-.088 1.496-.451 2.805-1.089 3.927-.616 1.122-1.529 1.991-2.739 2.607-1.188.616-2.662.924-4.422.924zm0-3.267c1.166 0 2.068-.363 2.706-1.089.638-.748.99-1.837 1.056-3.267.022-.33.033-.759.033-1.287 0-.528-.011-.957-.033-1.287-.066-1.408-.418-2.486-1.056-3.234-.638-.748-1.54-1.122-2.706-1.122s-2.068.374-2.706 1.122c-.638.748-.99 1.826-1.056 3.234-.022.33-.033.759-.033 1.287 0 .528.011.957.033 1.287.066 1.43.418 2.519 1.056 3.267.638.726 1.54 1.089 2.706 1.089zm20.948 3.267c-1.76 0-3.245-.308-4.455-.924-1.188-.616-2.101-1.485-2.739-2.607-.616-1.122-.968-2.431-1.056-3.927-.022-.396-.033-.88-.033-1.452s.011-1.056.033-1.452c.088-1.518.451-2.827 1.089-3.927.66-1.122 1.584-1.991 2.772-2.607 1.21-.616 2.673-.924 4.389-.924 1.716 0 3.168.308 4.356.924 1.21.616 2.134 1.485 2.772 2.607.66 1.1 1.034 2.409 1.122 3.927.022.396.033.88.033 1.452s-.011 1.056-.033 1.452c-.088 1.496-.451 2.805-1.089 3.927-.616 1.122-1.529 1.991-2.739 2.607-1.188.616-2.662.924-4.422.924zm0-3.267c1.166 0 2.068-.363 2.706-1.089.638-.748.99-1.837 1.056-3.267.022-.33.033-.759.033-1.287 0-.528-.011-.957-.033-1.287-.066-1.408-.418-2.486-1.056-3.234-.638-.748-1.54-1.122-2.706-1.122s-2.068.374-2.706 1.122c-.638.748-.99 1.826-1.056 3.234-.022.33-.033.759-.033 1.287 0 .528.011.957.033 1.287.066 1.43.418 2.519 1.056 3.267.638.726 1.54 1.089 2.706 1.089zm19.728 3.267c-1.144 0-2.156-.187-3.036-.561a5.91 5.91 0 01-2.145-1.65c-.572-.704-1.012-1.529-1.32-2.475-.308-.968-.484-2.024-.528-3.168a19.265 19.265 0 01-.033-1.056c0-.33.011-.693.033-1.089.044-1.1.209-2.123.495-3.069.308-.946.748-1.771 1.32-2.475a6.056 6.056 0 012.178-1.683c.88-.396 1.892-.594 3.036-.594 1.188 0 2.189.209 3.003.627.836.396 1.529.913 2.079 1.551V1.362c0-.22.066-.407.198-.561a.804.804 0 01.594-.231h2.805c.22 0 .407.077.561.231a.764.764 0 01.231.561v21.846c0 .22-.077.407-.231.561a.764.764 0 01-.561.231h-2.607a.804.804 0 01-.594-.231.833.833 0 01-.198-.561v-1.221c-.55.682-1.254 1.243-2.112 1.683-.836.44-1.892.66-3.168.66zm1.221-3.531c.924 0 1.661-.209 2.211-.627.55-.418.957-.946 1.221-1.584.264-.66.407-1.331.429-2.013.022-.396.033-.814.033-1.254 0-.462-.011-.891-.033-1.287a4.647 4.647 0 00-.462-1.881 3.825 3.825 0 00-1.254-1.518c-.55-.396-1.265-.594-2.145-.594-.924 0-1.661.209-2.211.627a3.385 3.385 0 00-1.155 1.584 7.508 7.508 0 00-.429 2.178c-.022.66-.022 1.32 0 1.98.044.792.187 1.518.429 2.178.242.66.627 1.199 1.155 1.617.55.396 1.287.594 2.211.594z" fill="#363853"/></svg>
